X: 79
T:The MarewAarneae
% Nottingham Music Database
S:Kevin Briggs, via EF
M:4/4
L:1/4
K:G
B/2c/2|"G"dd/2B/2 Bd/2B/2|"C"cB "Gm"dB/2G/2|"Am"AB "D7"GF|"G"GB dc/2B/2|"D7"A/2G/2F "A7"FED|
"G"DG G3/2c/2|"G"BG Bc/2B/2|"Am"cA A3/2c/2|"D"df ed|\
"A7"cA AG|
"D"FF Ad|"A7"ce dc/2e/2|"D"fd "A7"cd/2e/2|"Dm"fd d/2e/2f/2g/2|"Am"a2 e2|
"D7"dc f2|"G"g3/2a/2 bg/2a/2|"Am"fe "D"gf|"Em"e3/2d/2 "A7"cA|\
"D"d3A|"G"BG/2B/2 "D"AD|
"G"BG "Am"E2|"D"F2 "B"d/2c/2B/2A/2|"G"G"G"G/2A/2 Bd|"D"ff "D""c#"A||
"D7"FA A/2c/2B/2A/2|"G"GB/2d/2 "C"ee|"G"d g_B/2G/2|\
"A7"E/2F/2G "D"A3/2G/2|"D"FA AFD|
"G"GB/2G/2 "D"FA|"G"GE G3/2E/2|"G"B/2c/2B/2A/2 "D""G"GB/2G/2|\
"A7"E/2F/2G/2E/2 "D"FD|"G"G::
B/2A/2:: B/2d/2z/2D/2|"D"FA/2A/2 F/2d/2d/2f/2|
"A"e/2f/2e/2f/2 g/2f/2e/2g/2|"D"ff d:|


